X:1
T:Fader vor
T:Fader vor
T:Bl. Kor eller Solo med Orgel
T:Peter Lindeman
C:Peter Lindeman
%%score [ 1 2 3 4 ]
L:1/8
Q:1/4=60
M:2/2
K:D
V:1 treble nm="Soprano"
V:2 treble nm="Alto"
V:3 treble-8 nm="Tenor"
V:4 bass nm="Bass"
V:1
"^Andante sostenuto"!pp! D4!<(! E4!<)! |!>(! F6!>)! z2 |!p! F2!<(! F2 E2 F2!<)! | G4!>(! F4 | %4
w: Fa- der|vor,|du som er i|Him- le-|
 E6!>)! z2 |!<(! A4 F2 A2!<)! | B4 A2 G2 | F4 z2!mf! F2 | F4 d2 c2 | B4 A4 |!<(! A4 c4!<)! | %11
w: ne,|hel- li- get|vor- de dit|Navn, til-|ko- me dit|Ri- ke.|Ske din|
!>(! d4 B4!>)! |!p! F2!<(! ^G2 A2 c2!<)! | d4 c2 B2 |!>(! (A4 ^G4)!>)! | F8 |!p! =G4 F2 E2 | %17
w: Vil- je|som i Him- len|saa og paa|Jor- *|den.|Giv os hver|
!<(! F4 A4!<)! | B4!>(! A2 ^G2!>)! | A4!<(! F2 A2 | d4!<)!!>(! c2 A2 | B4!>)! z2 A2 | %22
w: Dag vort|dag- li- ge|Brød, og for-|lat os vor|Skyld, som|
!<(! F4 A4!<)! | d2 c2 B2 A2 | B6 B2 | c4 z2!p! ^G2 |!<(! A2 A2 B2 c2!<)! | d4 c4 |!>(! B4 B4!>)! | %29
w: vi for-|la- ter vor- e|Skyld- ne-|re, og|led os ik- ke|ut i|Fris- tel-|
 A4 z2!f! A2 | c8 | d4!p! D2 D2 | E8 | F4 z2 |!mf! A2 |!<(! (A2 d2) B2 B2!<)! | c6 z2 | %37
w: se, men|frels|os fra det|on-|de.|Ti|Ri- * ket er|dit,|
 (d2 B2) F2 G2 | (A2 F2) D2 E2 | F6 F2 | E6 z2 |!p! A8 | F6 z2 |!mf! (A4!<(! B2 c2) | d6!<)! z2 | %45
w: Mak- * ten og|Æ- * ren i|E- vig-|het.|A-|men,|a- * *|men,|
!f! d8 | !fermata!d6 z2 |] %47
w: a-|men.|
V:2
!pp! D4!<(! C4!<)! |!>(! D6!>)! z2 |!p! D2!<(! D2 D2 D2!<)! | D4!>(! D4 | C6!>)! z2 | %5
w: Fa- der|vor,|du som er i|Him- le-|ne,|
!<(! E4 D2 A2!<)! | (A2 G2) F2 E2 | C4 z2!mf! F2 | F4 E2 E2 | ^G4 A4 |!<(! =G4 G4!<)! | %11
w: hel- li- get|vor- * de dit|Navn, til-|ko- me dit|Ri- ke.|Ske din|
!>(! F4 F4!>)! |!p! F2!<(! ^E2 F2 F2!<)! | D4 A2 ^G2 |!>(! (F4 ^E4)!>)! | C8 |!p! C4 C2 C2 | %17
w: Vil- je|som i Him- len|saa og paa|Jor- *|den.|Giv os hver|
!<(! D4 D4!<)! | D4!>(! D2 D2!>)! | C4!<(! D2 E2 | E4!<)!!>(! E2 E2 | E4!>)! z2 E2 | %22
w: Dag vort|dag- li- ge|Brød, og for-|lat os vor|Skyld, som|
!<(! E2 D2 E2 E2!<)! | E4 (D2 C2) | F6 F2 | ^E4 z2!p! E2 |!<(! F4 F4!<)! | F2 F2 F2 F2 | %28
w: vi for- la- ter|vor- e _|Skyld- ne-|re, og|led os|ik- ke ut i|
!>(! =F4 (E2 D2)!>)! | C4 z2!f! A2 | G8 | F4!p! D2 D2 | (D4 C4) | D4 z2 |!mf! A2 | %35
w: Fris- tel- *|se, men|frels|os fra det|on- *|de.|Ti|
!<(! D4 G2 G2!<)! | G6 z2 | F4 D2 B,2 | D4 D2 D2 | D6 D2 | C6 z2 |!p! (D6 C2) | D6 z2 | %43
w: Ri- ket er|dit,|Mak- ten og|Æ- ren i|E- vig-|het.|A- *|men,|
!mf! (C2 E2!<(! A2 G2) | F6!<)! z2 |!f! (G4 D2 E2) | !fermata!F6 z2 |] %47
w: a- * * *|men,|a- * *|men.|
V:3
!pp! F4!<(! A4!<)! |!>(! A6!>)! z2 |!p! A2!<(! A2 G2 A2!<)! | B4!>(! A4 | A6!>)! z2 | %5
w: Fa- der|vor,|du som er i|Him- le-|ne,|
!<(! c4 A2 d2!<)! | d4 d2 B2 | ^A4 z2!mf! c2 | (d2 c2) B2 c2 | (e2 d2) c4 |!<(! c4 e4!<)! | %11
w: hel- li- get|vor- de dit|Navn, til-|ko- * me dit|Ri- * ke.|Ske din|
!>(! d4 d4!>)! |!p! d2!<(! d2 c2 A2!<)! | F4 d2 d2 |!>(! c8!>)! | A8 |!p! A4 A2 A2 | %17
w: Vil- je|som i Him- len|saa og paa|Jor-|den.|Giv os hver|
!<(! A4 A4!<)! | ^G4!>(! A2 B2!>)! | A4!<(! A2 A2 | ^G4!<)!!>(! A2 A2 | ^G4!>)! z2 A2 | %22
w: Dag vort|dag- li- ge|Brød, og for-|lat os vor|Skyld, som|
!<(! A2 A2 E2 A2!<)! | (^G2 A2) (G2 A2) | (A4 ^G2) F2 | ^G4 z2!p! c2 |!<(! c4 (B2 A2)!<)! | %27
w: vi for- la- ter|vor- * e _|Skyld- * ne-|re, og|led os *|
 A2 A2 A2 A2 |!>(! A6 ^G2!>)! | E4 z2!f! A2 | e8 | d4!p! D2 D2 | (_B4 A4) | A4 z2 |!mf! A2 | %35
w: ik- ke ut i|Fris- tel-|se, men|frels|os fra det|on- *|de.|Ti|
!<(! A4 d2 e2!<)! | e6 z2 | d4 B2 d2 | A4 A2 ^G2 | A6 A2 | A6 z2 |!p! (F2 G2 A2 G2) | A6 z2 | %43
w: Ri- ket er|dit,|Mak- ten og|Æ- ren i|E- vig-|het.|A- * * *|men,|
!mf! (G4!<(! E2 A2) | A6!<)! z2 |!f! B8 | !fermata!A6 z2 |] %47
w: a- * *|men,|a-|men.|
V:4
!pp! D,4!<(! A,,4!<)! |!>(! D,6!>)! z2 |!p! D,2!<(! D,2 D,2 D,2!<)! | G,4!>(! D,4 | A,6!>)! z2 | %5
w: Fa- der|vor,|du som er i|Him- le-|ne,|
!<(! A,4 D,2 F,2!<)! | G,4 D,2 E,2 | F,4 z2!mf! ^A,2 | (B,2 =A,2) ^G,2 A,2 | E,4 A,4 | %10
w: hel- li- get|vor- de dit|Navn, til-|ko- * me dit|Ri- ke.|
!<(! A,4 A,4!<)! |!>(! B,4 B,,4!>)! |!p! B,2!<(! B,2 A,2 F,2!<)! | B,,4 B,,2 B,,2 |!>(! C,8!>)! | %15
w: Ske din|Vil- je|som i Him- len|saa og paa|Jor-|
 F,8 |!p! E,4 A,,2 A,,2 |!<(! D,4 F,4!<)! | ^E,4!>(! E,2 E,2!>)! | F,4!<(! D,2 C,2 | %20
w: den.|Giv os hver|Dag vort|dag- li- ge|Brød, og for-|
 B,,4!<)!!>(! A,,2 C,2 | E,4!>)! z2 C,2 |!<(! D,4 D,4!<)! | B,,2 A,,2 E,2 F,2 | D,6 D,2 | %25
w: lat os vor|Skyld, som|vi for-|la- ter vor- e|Skyld- ne-|
 C,4 z2!p! C,2 |!<(! F,2 E,2 D,2 C,2!<)! | B,,4 C,4 |!>(! D,4 E,4!>)! | A,,4 z2!f! A,2 | A,8 | %31
w: re, og|led os ik- ke|ut i|Fris- tel-|se, men|frels|
 B,4!p! D,2 D,2 | (G,,4 A,,4) | D,4 z2 |!mf! A,2 |!<(! F,4 G,2 E,2!<)! | A,6 z2 | B,4 B,2 B,2 | %38
w: os fra det|on- *|de.|Ti|Ri- ket er|dit,|Mak- ten og|
 F,4 B,,2 B,,2 | (A,,4 D,2) F,2 | A,6 z2 |!p! (D,2 E,2 F,2 E,2) | D,6 z2 |!mf!!<(! A,,8!<)! | %44
w: Æ- ren i|E- * vig-|het.|A- * * *|men,|a-|
 D,6 z2 |!f! G,8 | !fermata!D,6 z2 |] %47
w: men,|a-|men.|

